src/images/icon-call.svg

<svg width="36" height="36" viewBox="0 0 36 36" fill="none" xmlns="http://www.w3.org/2000/svg">
    <rect x="0.5" y="0.5" width="35" height="35" rx="17.5" stroke="#404266"/>
    <path d="M28.4593 22.4889L25.8487 19.8783C25.129 19.1586 23.9578 19.1586 23.2381 19.8783L22.0515 21.0649C21.5062 21.6102 20.6189 21.61 20.0739 21.0651L14.9305 15.9173C14.384 15.3708 14.3839 14.4862 14.9305 13.9396C15.1217 13.7485 15.6705 13.1996 16.1171 12.753C16.8337 12.0364 16.8437 10.8689 16.1164 10.1417L13.5065 7.54001C12.7868 6.82031 11.6157 6.82031 10.8979 7.53813C10.3607 8.07059 10.1875 8.24237 9.94662 8.48112C7.35115 11.0765 7.35115 15.2996 9.9465 17.895L18.096 26.0488C20.6975 28.6503 24.9082 28.6505 27.51 26.0488L28.4593 25.0994C29.179 24.3797 29.179 23.2086 28.4593 22.4889ZM11.7662 8.4102C12.0061 8.1703 12.3964 8.17026 12.637 8.41086L15.247 11.0126C15.4874 11.253 15.4874 11.6422 15.247 11.8828L14.8118 12.3178L11.3333 8.83931L11.7662 8.4102ZM18.9663 25.1787L10.8168 17.0248C8.80876 15.0168 8.69839 11.8637 10.4774 9.72381L13.9458 13.1923C13.0344 14.2254 13.0724 15.7997 14.0601 16.7874L19.2033 21.9349C19.2034 21.935 19.2035 21.935 19.2035 21.9351C20.1901 22.9218 21.7644 22.9622 22.7988 22.0496L26.2673 25.5181C24.1342 27.294 20.9882 27.2006 18.9663 25.1787ZM27.5892 24.2293L27.154 24.6644L23.6732 21.1836L24.1083 20.7485C24.3482 20.5086 24.7386 20.5085 24.9785 20.7485L27.5891 23.3591C27.8291 23.599 27.8291 23.9894 27.5892 24.2293Z" fill="#404266"/>
</svg>

<svg xmlns="http://www.w3.org/2000/svg" width="36" height="36" fill="none"><rect width="35" height="35" x=".5" y=".5" stroke="#404266" rx="17.5"/><path fill="#404266" d="M28.46 22.5l-2.6-2.62c-.73-.72-1.9-.72-2.62 0l-1.2 1.18c-.53.55-1.42.55-1.97 0l-5.14-5.14c-.55-.55-.55-1.43 0-1.98.2-.2.74-.74 1.2-1.2.7-.7.7-1.87 0-2.6l-2.62-2.6c-.7-.72-1.88-.72-2.6 0-.54.53-.7.7-.95.94-2.6 2.6-2.6 6.82 0 9.4l8.15 8.17c2.6 2.6 6.8 2.6 9.4 0l.96-.95c.72-.72.72-1.9 0-2.6zM11.76 8.4c.25-.23.64-.23.88 0l2.6 2.6c.25.25.25.64 0 .88l-.43.44-3.47-3.48.44-.43zm7.2 16.78l-8.14-8.16c-2-2-2.12-5.16-.34-7.3l3.47 3.47c-.92 1.03-.88 2.6.1 3.6l5.15 5.13c1 1 2.56 1.03 3.6.12l3.47 3.47c-2.14 1.77-5.28 1.68-7.3-.34zm8.63-.95l-.45.43-3.48-3.48.44-.43c.25-.24.64-.24.88 0l2.6 2.6c.25.25.25.64 0 .88z"/></svg>
